dist/img/svg/twitter.svg

<svg width="21" height="21" viewBox="0 0 21 21" fill="none" xmlns="http://www.w3.org/2000/svg">
<g clip-path="url(#clip0)">
<path d="M20.3848 4.29875C19.641 4.625 18.8485 4.84125 18.0223 4.94625C18.8723 4.43875 19.521 3.64125 19.826 2.68C19.0335 3.1525 18.1585 3.48625 17.226 3.6725C16.4735 2.87125 15.401 2.375 14.231 2.375C11.961 2.375 10.1335 4.2175 10.1335 6.47625C10.1335 6.80125 10.161 7.11375 10.2285 7.41125C6.81977 7.245 3.80352 5.61125 1.77727 3.1225C1.42352 3.73625 1.21602 4.43875 1.21602 5.195C1.21602 6.615 1.94727 7.87375 3.03727 8.6025C2.37852 8.59 1.73227 8.39875 1.18477 8.0975C1.18477 8.11 1.18477 8.12625 1.18477 8.1425C1.18477 10.135 2.60602 11.79 4.46977 12.1712C4.13602 12.2625 3.77227 12.3062 3.39477 12.3062C3.13227 12.3062 2.86727 12.2913 2.61852 12.2362C3.14977 13.86 4.65727 15.0538 6.44977 15.0925C5.05477 16.1838 3.28352 16.8412 1.36602 16.8412C1.02977 16.8412 0.707266 16.8263 0.384766 16.785C2.20102 17.9563 4.35352 18.625 6.67477 18.625C14.2198 18.625 18.3448 12.375 18.3448 6.9575C18.3448 6.77625 18.3385 6.60125 18.3298 6.4275C19.1435 5.85 19.8273 5.12875 20.3848 4.29875Z" fill="#0071CE"/>
</g>
<defs>
<clipPath id="clip0">
<rect width="20" height="20" fill="white" transform="translate(0.384766 0.5)"/>
</clipPath>
</defs>
</svg>

<svg width="21" height="21" fill="none" xmlns="http://www.w3.org/2000/svg"><g clip-path="url(#clip0)"><path d="M20.385 4.299a8.55 8.55 0 01-2.363.647 4.077 4.077 0 001.804-2.266 8.194 8.194 0 01-2.6.992 4.099 4.099 0 00-7.092 2.804c0 .325.027.638.095.935-3.41-.166-6.425-1.8-8.452-4.288a4.128 4.128 0 00-.561 2.072c0 1.42.731 2.679 1.821 3.407a4.05 4.05 0 01-1.852-.505v.046A4.119 4.119 0 004.47 12.17a4.09 4.09 0 01-1.075.135c-.263 0-.528-.015-.776-.07.53 1.624 2.038 2.818 3.83 2.856a8.238 8.238 0 01-5.083 1.75 7.67 7.67 0 01-.981-.057 11.543 11.543 0 006.29 1.84c7.545 0 11.67-6.25 11.67-11.668 0-.18-.006-.356-.015-.53A8.18 8.18 0 0020.385 4.3z" fill="#0071CE"/></g><defs><clipPath id="clip0"><path fill="#fff" transform="translate(.385 .5)" d="M0 0h20v20H0z"/></clipPath></defs></svg>
